RestoDelMundo/Suecia/Otras Categorias/Ifk Malmo.svg

<svg xmlns="http://www.w3.org/2000/svg" viewBox="0 0 612 792"><path fill="#ffe512" d="M545.616 113.551c-120.125 120.881-234.191 23.347-239.463 0-4.894 23.347-119.415 120.881-239.546 0 0 0-76.822 402.943 239.506 565.626C622.82 516.494 545.616 113.551 545.616 113.551"/><path fill="#005cab" d="M92.593 176.439c51.215 39.165 158.956 42.553 213.56-11.674 19.58 20.335 62.851 39.92 98.628 40.293C343.4 277.363 195.4 366.99 111.045 381.676c-21.467-79.46-21.843-155.527-18.452-205.237M306.113 641.518c-42.177-24.1-76.07-52.346-103.558-83.976 39.917-10.924 178.125-56.487 299.76-178.128-25.23 95.652-80.213 196.577-196.202 262.104"/><path fill="#fff" d="M514.739 319.164c-27.11 31.256-147.619 159.669-334.782 210.51-27.112-36.907-46.318-76.825-59.499-116.742 84.354-16.196 233.86-95.274 329.506-209.753 21.469-3.394 45.195-11.679 70.047-26.741 2.263 36.53 2.637 86.992-5.272 142.726"/><path fill="#ffe512" d="m317.925 567.708 25.615 11.676v.374l-25.615 10.919-.374.379-11.297 25.231h-.376l-11.297-25.983-25.608-11.298c-.752-1.126.753-.378 1.129-1.126l24.102-10.545 11.674-24.857c0-.373.376-.373.753-.373zM140.419 299.206h-17.325v-67.032h17.325zM169.039 246.86v11.298h19.206v14.686h-19.206v26.362h-17.325v-67.032h38.412v14.686zM238.329 232.174h21.842l-26.736 31.63 28.996 35.402h-22.595l-22.219-29.372h-.376v29.372h-17.322v-67.032h17.322v27.489h.376z"/><path fill="#005cab" d="m169.415 435.907 15.815-6.404 25.986 27.867v-38.412l16.191-6.404 34.648 57.997-16.194 6.778-19.206-33.893-.376 41.801-6.402 2.637-28.998-30.13 9.416 38.038-16.193 6.404zM282.013 447.199l1.129 12.434-16.194 8.282-8.285-71.178 16.946-8.656 53.099 47.447-16.191 8.661-9.416-8.282zm-5.272-36.524h-.376l3.765 22.216 12.805-6.777zM342.642 409.17l17.701-10.924 7.903 12.803-32.755 19.959-35.027-57.24 15.068-9.04zM342.642 347.785l13.933-10.166 32.014 21.089-9.419-37.281 13.933-10.171 47.827 47.826-14.313 10.545-26.357-28.241h-.379l9.793 40.664-5.652 3.768-35.018-21.837h-.374l18.449 34.644-13.934 10.167zM416.83 268.329c3.389 3.762 3.01 9.035-.758 12.423-3.384 3.389-9.035 3.01-12.423-.752-3.01-3.389-2.636-9.035.753-12.05 3.767-3.389 9.034-3.015 12.428.379m16.949-15.07c3.01 3.394 2.636 9.04-.758 12.055-3.768 3.389-9.04 3.389-12.423-.379-3.015-3.768-3.015-9.04.747-12.423 3.767-3.015 9.04-3.015 12.434.747m45.184 24.857c14.686 16.191 13.181 38.038-2.636 52.346-16.191 14.307-37.66 13.56-52.346-2.636-13.555-15.065-9.787-37.281 4.525-50.462 14.307-12.803 36.902-14.307 50.457.752m-41.422 37.66c7.909 8.662 19.585 9.035 27.494 2.258 7.53-7.151 8.282-18.828.747-27.489-6.398-6.783-18.448-7.53-25.983-.379-7.909 6.777-8.283 18.828-2.258 25.61"/></svg>

<svg enable-background="new 0 0 612 792" viewBox="0 0 612 792" xmlns="http://www.w3.org/2000/svg"><path d="M 545.616 113.551 c -120.125 120.881 -234.191 23.347 -239.463 0 c -4.894 23.347 -119.415 120.881 -239.546 0 c 0 0 -76.822 402.943 239.506 565.626 C 622.82 516.494 545.616 113.551 545.616 113.551 L 545.616 113.551 z" fill="#ffe512"/><path d="M 92.593 176.439 c 51.215 39.165 158.956 42.553 213.56 -11.674 c 19.58 20.335 62.851 39.92 98.628 40.293 c -61.381 72.305 -209.381 161.932 -293.736 176.618 l 0 0 C 89.578 302.216 89.202 226.149 92.593 176.439 L 92.593 176.439 z" fill="#005cab"/><path d="M 306.113 641.518 c -42.177 -24.1 -76.07 -52.346 -103.558 -83.976 c 39.917 -10.924 178.125 -56.487 299.76 -178.128 C 477.085 475.066 422.102 575.991 306.113 641.518 L 306.113 641.518 z" fill="#005cab"/><path d="M 514.739 319.164 c -27.11 31.256 -147.619 159.669 -334.782 210.51 c -27.112 -36.907 -46.318 -76.825 -59.499 -116.742 c 84.354 -16.196 233.86 -95.274 329.506 -209.753 c 21.469 -3.394 45.195 -11.679 70.047 -26.741 C 522.274 212.968 522.648 263.43 514.739 319.164 L 514.739 319.164 z" fill="#fff"/><path d="M 317.925 567.708 l 25.615 11.676 v .374 l -25.615 10.919 l -.374 .379 l -11.297 25.231 h -.376 l -11.297 -25.983 l -25.608 -11.298 c -.752 -1.126 .753 -.378 1.129 -1.126 l 24.102 -10.545 l 11.674 -24.857 c 0 -.373 .376 -.373 .753 -.373 L 317.925 567.708 L 317.925 567.708 z" fill="#ffe512"/><path d="M 140.419 299.206 L 123.094 299.206 L 123.094 232.174 L 140.419 232.174 L 140.419 299.206 Z" fill="#ffe512"/><path d="M 169.039 246.86 L 169.039 258.158 L 188.245 258.158 L 188.245 272.844 L 169.039 272.844 L 169.039 299.206 L 151.714 299.206 L 151.714 232.174 L 190.126 232.174 L 190.126 246.86 L 169.039 246.86 Z" fill="#ffe512"/><path d="M 238.329 232.174 L 260.171 232.174 L 233.435 263.804 L 262.431 299.206 L 239.836 299.206 L 217.617 269.834 L 217.241 269.834 L 217.241 299.206 L 199.919 299.206 L 199.919 232.174 L 217.241 232.174 L 217.241 259.663 L 217.617 259.663 L 238.329 232.174 Z" fill="#ffe512"/><path d="M 169.415 435.907 L 185.23 429.503 L 211.216 457.37 L 211.216 418.958 L 227.407 412.554 L 262.055 470.551 L 245.861 477.329 L 226.655 443.436 L 226.279 485.237 L 219.877 487.874 L 190.879 457.744 L 200.295 495.782 L 184.102 502.186 L 169.415 435.907 Z" fill="#005cab"/><path d="M 282.013 447.199 l 1.129 12.434 l -16.194 8.282 l -8.285 -71.178 l 16.946 -8.656 l 53.099 47.447 l -16.191 8.661 l -9.416 -8.282 L 282.013 447.199 L 282.013 447.199 z M 276.741 410.675 h -.376 l 3.765 22.216 l 12.805 -6.777 L 276.741 410.675 L 276.741 410.675 z" fill="#005cab"/><path d="M 342.642 409.17 L 360.343 398.246 L 368.246 411.049 L 335.491 431.008 L 300.464 373.768 L 315.532 364.728 L 342.642 409.17 Z" fill="#005cab"/><path d="M 342.642 347.785 L 356.575 337.619 L 388.589 358.708 L 379.17 321.427 L 393.103 311.256 L 440.93 359.082 L 426.617 369.627 L 400.26 341.386 L 399.881 341.386 L 409.674 382.05 L 404.022 385.818 L 369.004 363.981 L 368.63 363.981 L 387.079 398.625 L 373.145 408.792 L 342.642 347.785 Z" fill="#005cab"/><path d="M 416.83 268.329 c 3.389 3.762 3.01 9.035 -.758 12.423 c -3.384 3.389 -9.035 3.01 -12.423 -.752 c -3.01 -3.389 -2.636 -9.035 .753 -12.05 C 408.169 264.561 413.436 264.935 416.83 268.329 L 416.83 268.329 z M 433.779 253.259 c 3.01 3.394 2.636 9.04 -.758 12.055 c -3.768 3.389 -9.04 3.389 -12.423 -.379 c -3.015 -3.768 -3.015 -9.04 .747 -12.423 C 425.112 249.497 430.385 249.497 433.779 253.259 L 433.779 253.259 z M 478.963 278.116 c 14.686 16.191 13.181 38.038 -2.636 52.346 c -16.191 14.307 -37.66 13.56 -52.346 -2.636 c -13.555 -15.065 -9.787 -37.281 4.525 -50.462 C 442.813 264.561 465.408 263.057 478.963 278.116 L 478.963 278.116 z M 437.541 315.776 c 7.909 8.662 19.585 9.035 27.494 2.258 c 7.53 -7.151 8.282 -18.828 .747 -27.489 c -6.398 -6.783 -18.448 -7.53 -25.983 -.379 C 431.89 296.943 431.516 308.994 437.541 315.776 L 437.541 315.776 z" fill="#005cab"/></svg>
